!!!!SEGMENT: pl-wnifc--6854-n_kozlowski-jozef--polonaise-in-d.krn
!!!cenid: 18xx:3968
!!!COM: Kozłowski, Józef
!!!COM-rismID: pe30003850
!!!CDT: 1757-1831
!!!CNT: Polish
!!!OTL: Polonaise in D
!!!PDT:
!!!AGN:
!!!SMS-siglum: PL-Wnifc
!!!SMS-shelfmark: 6854/n
!!!SMS-shelfwork: W
!!!SMS-variant:
!!!SMS-altvar:
!!!NIFC-rismSourceID: 1001159811
!!!NIFC-rismChildID: 1001159994
!!!NIFC-islandoraID: nifc:214685
!!!URL-pdf-islandora: https://repozytorium.nifc.pl/islandora/object/nifc%3A214685/datastream/PDF/view
!!!URL-scan: https://polish.musicsources.pl/pl/lokalizacje/galeria/klocki-introligatorskie/689 @EN{Scan on Polish Music Sources Website} @PL{Skany w portalu Dziedzictwo Muzyki Polskiej w otwartym dostępie}
!!!ONB-nifc: UWAGA: skan 22
!!!AIN: 1 vox
!!!key: D
**kern	**kern	**dynam	**kern	**dynam
*part3	*part2	*part2	*part1	*part1
*staff3	*staff2	*	*staff1	*
*I"Piano Forte	*I"Piano Forte	*	*I"Choeur.	*
*I'pf	*I'pf	*	*I'Coro	*
*ICklav	*ICklav	*	*Ivox	*
*Ipiano	*Ipiano	*	*Ivox	*
*clefF4	*clefG2	*	*clefG2	*
*k[f#c#]	*k[f#c#]	*	*k[f#c#]	*
*D:	*D:	*	*D:	*
*M3/4	*M3/4	*	*M3/4	*
=1	=1	=1	=1	=1
*	*	*^	*	*
*	*	*	*^	*	*
!	!LO:TX:a:t=Trombe	!LO:DY:b	!	!	!LO:TX:t=P:problem: tekst zapisany cyrylicą	!
!	!	!LO:HP:a	!LO:HP:b=2	!	!	!
8D'/L	8d'/L	p <	<	.	2.r	.
8AA'/	8A'/	.	.	.	.	.
8D'/	8d'/	.	.	.	.	.
8AA'/	8A'/	.	.	.	.	.
8D'/	8d'/	.	.	.	.	.
!	!	!	!	!LO:HP:a:t=cresc&colon;	!	!
8AA'/J	8A'/J	.	.	<	.	.
*	*	*	*v	*v	*	*
=2	=2	=2	=2	=2	=2
8D'/L	(16d/LL	.	.	2.r	.
.	16f#/J)	.	.	.	.
8AA'/	8A'/J	.	.	.	.
8D'/	(16d/LL	.	.	.	.
.	16f#/J)	.	.	.	.
8AA'/	8A'/J	.	.	.	.
8D'/	(16d/LL	.	.	.	.
.	16f#/J)	.	.	.	.
8AA'/J	8A'/J	[[	[[	.	.
*	*	*v	*v	*	*
=3	=3	=3	=3	=3
(16DD/LL	16ff#\LL 16ddd	f	4.dd^\	.
16D/	16dd\	.	.	.
16C#/	16ff#\ 16ddd	.	.	.
16D/JJ)	16dd\JJ	.	.	.
*rep	*	*	*	*
(16DD/LL	16ff#\LL 16ddd	.	.	.
16D/	16dd\	.	.	.
16C#/	16aa\ 16ccc#	.	8cc#\	.
16D/JJ)	16dd\JJ	.	.	.
*Xrep	*	*	*	*
*rep	*	*	*	*
(16DD/LL	16gg\LL 16bb	.	8b/	.
16D/	16dd\	.	.	.
16C#/	16ff#\ 16aa	.	8a/	.
16D/JJ)	16dd\JJ	.	.	.
*Xrep	*	*	*	*
=4	=4	=4	=4	=4
(16DD/LL	16gg\LL 16bb	.	8b/	.
16D/	16dd\	.	.	.
16C#/	16ff#\ 16aa	.	8a/	.
16D/JJ)	16dd\JJ	.	.	.
*rep	*	*	*	*
(16DD/LL	16gg\LL 16bb	.	8b\L	.
16D/	16dd\	.	.	.
16C#/	16gg\ 16ccc#	.	8cc#\J	.
16D/JJ)	16dd\JJ	.	.	.
*Xrep	*	*	*	*
*rep	*	*	*	*
(16DD/LL	8ff#\ 8ddd	.	8dd\	.
16D/	.	.	.	.
16C#/	8r	.	8rcc	.
16D/JJ)	.	.	.	.
*Xrep	*	*	*	*
=5	=5	=5	=5	=5
(16DD/LL	16ff#\LL 16ddd	.	4.dd^\	.
16D/	16dd\	.	.	.
16C#/	16ff#\ 16ddd	.	.	.
16D/JJ)	16dd\JJ	.	.	.
*rep	*	*	*	*
(16DD/LL	16ff#\LL 16ddd	.	.	.
16D/	16dd\	.	.	.
16C#/	16aa\ 16ccc#	.	8cc#\	.
16D/JJ)	16dd\JJ	.	.	.
*Xrep	*	*	*	*
*rep	*	*	*	*
(16DD/LL	16gg\LL 16bb	.	8b/	.
16D/	16dd\	.	.	.
16C#/	16ff#\ 16aa	.	8a/	.
16D/JJ)	16dd\JJ	.	.	.
*Xrep	*	*	*	*
=6	=6	=6	=6	=6
(<16AAA/LL	16ee\LL 16gg	.	(8g/L	.
16AA/	16a\	.	.	.
16GG#X/	16dd\ 16ff#	.	8f#/J)	.
16AA/JJ)	16a\JJ	.	.	.
*rep	*	*	*	*
(16AAA/LL	16ee\LL 16gg	.	(8g/L	.
16AA/	16a\	.	.	.
16GG#/	16ff#\ 16aa	.	8a/J	.
16AA/JJ)	16a\JJ	.	.	.
*Xrep	*	*	*	*
(16DD/LL	8dd\ 8ff#	.	8f#/)	.
16D/	.	.	.	.
16C#X/	8r	.	8r	.
16D/JJ)	.	.	.	.
=7	=7	=7	=7	=7
(16DD/LL	16ff#\LL 16ddd	.	4.dd\	.
16D/	16dd\	.	.	.
16C#/	16ff#\ 16ddd	.	.	.
16D/JJ)	16dd\JJ	.	.	.
*rep	*	*	*	*
(16DD/LL	16ff#\LL 16ddd	.	.	.
16D/	16dd\	.	.	.
16C#/	16aa\ 16ccc#	.	8cc#\	.
16D/JJ)	16dd\JJ	.	.	.
*Xrep	*	*	*	*
*rep	*	*	*	*
(16DD/LL	16gg\LL 16bb	.	8b/L	.
16D/	16dd\	.	.	.
16C#/	16ff#\ 16aa	.	8a/J	.
16D/JJ)	16dd\JJ	.	.	.
*Xrep	*	*	*	*
!!LO:LB:g=original	!	!	!	!
=8	=8	=8	=8	=8
(16DD/LL	16gg\LL 16bb	.	8b/	.
16D/	16dd\	.	.	.
16C#/	16ff#\ 16aa	.	8a/	.
16D/JJ)	16dd\JJ	.	.	.
*rep	*	*	*	*
(16DD/LL	16gg\LL 16bb	.	8b\L	.
16D/	16dd\	.	.	.
16C#/	16gg\ 16ccc#	.	8cc#\J	.
16D/JJ)	16dd\JJ	.	.	.
*Xrep	*	*	*	*
*rep	*	*	*	*
(16DD/LL	8ff#\ 8ddd	.	8dd\	.
16D/	.	.	.	.
16C#/	8r	.	8r	.
16D/JJ)	.	.	.	.
*Xrep	*	*	*	*
=9	=9	=9	=9	=9
8DD/L	8ff#\L 8ddd	f	8dd\	.
32r	32r	.	16r	.
(32AA/LL	(32a\LL	.	.	.
32BB/	32b\	.	16a/	.
32C#/JJJ)	32cc#\JJJ)	.	.	.
8D`\L	8dd\L	.	8.dd\	.
16r	16r	.	.	.
(64D\LLL	(64dd\LLL	.	16ff#\	.
64E\	64ee\	.	.	.
64F#\	64ff#\	.	.	.
64G\JJJJ)	64gg\JJJJ)	.	.	.
8A`\L	16aa'\LL	.	8aa\	.
.	16aa'\	.	.	.
16F#'\L	16ff#'\	.	16ff#\LL	.
16D'\JJ	16dd'\JJ	.	16dd\JJ	.
=10	=10	=10	=10	=10
8A`\L	8aa`\L	.	4aa\	.
8AA\ 8A	16c#'>/L 16e 16a	.	.	.
.	16c#'>/JJ 16e 16a	.	.	.
8AA\ 8A	8c#'>/L 8e 8a	.	4r	.
8AA\J 8A	8c#'>/J 8e 8a	.	.	.
8AA\ 8A	8c#/ 8e 8a	.	4r	.
8r	8r	.	.	.
==11	==11	==11	==11	==11
*clefG2	*	*	*	*
*tremolo	*	*	*	*
!	!LO:TX:b:t=dolce	!	!LO:TX:a:t=a mezza voce	!
(8d/L 8f#	8.dd\L	.	8.dd\	.
8A/	.	.	.	.
.	16ff#\Jk	.	16ff#\	.
.	16qqa/	.	.	.
8d/ 8f#	4.aa^\	.	4.aa^\	.
8A/	.	.	.	.
8d/ 8f#	.	.	.	.
8A/J)	8ff#\	.	8ff#\	.
=12	=12	=12	=12	=12
.	32qqaa/	.	.	.
(8c#/L 8g	(16gg\LL	.	(16gg\LL	.
.	16ff#\	.	16ff#\	.
8A/	16gg\)	.	16gg\JJ)	.
.	16ee`\JJ	.	16ee`\	.
8c#/ 8g	4.cc#\	.	4.cc#\	.
8A/	.	.	.	.
8c#/ 8g	.	.	.	.
8A/J)	8a\	.	8a/	.
=13	=13	=13	=13	=13
(8d/L 8f#	8.dd\L	.	8.dd\	.
8A/	.	.	.	.
.	16cc#\K	.	16cc#\	.
8d/ 8f#	8dd\	.	8.dd\	.
8A/	8ee\	.	.	.
.	.	.	16ee\	.
8d/ 8f#	8.ff#\	.	8.ff#\	.
8A/J)	.	.	.	.
.	16qqaa/	.	.	.
.	16gg\Jk	.	16gg\	.
=14	=14	=14	=14	=14
(8d/L 8f#	(4ff#\	.	(4ff#\	.
8A/	.	.	.	.
8c#/ 8e	8ee\)	.	8ee\)	.
8A/	16a`/LL	.	8r	.
.	16a`/JJ	.	.	.
8c#/ 8e	8a`/L	.	4r	.
8A/J)	8a`/J	.	.	.
=15	=15	=15	=15	=15
(8d/L 8f#	8.dd\L	.	8.dd\	.
8A/	.	.	.	.
.	16ff#\Jk	.	16ff#\	.
.	16qqa/	>	.	.
8d/ 8f#	4.aa\	.	4.aa\	.
8A/	.	.	.	.
8d/ 8f#	.	.	.	.
8A/J)	8ff#\	]	8ff#\	.
=16	=16	=16	=16	=16
.	16qqaa/	.	.	.
(8c#/L 8g	(16gg\LL	.	(16gg\LL	.
.	16ff#\	.	16ff#\	.
8A/	16gg\JJ)	.	16gg\JJ)	.
.	16ee`\	.	16ee`\	.
8c#/ 8g	4.cc#/	.	4.cc#\	.
8A/	.	.	.	.
8c#/ 8g	.	.	.	.
8A/J)	8a/	.	8a\	.
*clefF4	*	*	*	*
!!LO:LB:g=original	!	!	!	!
=17	=17	=17	=17	=17
*	*	*^	*	*
!	!	!LO:DY:b	!LO:DY:b=2	!	!
!	!	!	!LO:HP:b=2	!	!
4.F#\ 4.A 4.d	4.a\ 4.dd	p >	p >	4.dd^\	.
!	!	!	!	!	!LO:DY:a
8F#\ 8A 8d	8ccn\	]	]	8ccn\	p
*Xtremolo	*	*	*	*	*
8G\L 8B 8e	8bsS\L	.	.	8b\	.
8G\J 8B 8e	16gg\L	.	.	(16gg\LL	.
.	16ee\JJ	.	.	16ee\JJ)	.
*clefG2	*	*	*	*	*
*	*	*v	*v	*	*
=18	=18	=18	=18	=18
8A/L 8d 8f#	8ddsS\L	.	8dd\	.
8A/J 8e 8g	(16ff#\L	.	(16ff#\LL	.
.	16ee\JJ)	.	16ee\JJ)	.
8r	(4cc#\ 4ee	.	(4ee\	.
8A/L 8e 8g	.	.	.	.
8d/J 8f#	8dd\)	.	8dd\)	.
8r	8r	.	8r	.
*clefF4	*	*	*	*
=19:|!|:	=19:|!|:	=19:|!|:	=19:|!|:	=19:|!|:
8D#X`<\L 8F# 8A 8d	8a`\L 8dd 8ff#	f	2.r	.
8D#`<\J 8F# 8A 8d	8a`\J 8dd 8ff#	.	.	.
4r	16r	.	.	.
.	16aa'\LL	.	.	.
.	16gg'\	.	.	.
.	16ff#'\JJ	.	.	.
(4AA#X\ 4A#X	(16ee\LL	.	.	.
.	16gg\)	.	.	.
.	16ff#'\	.	.	.
.	16ee'\JJ	.	.	.
=20	=20	=20	=20	=20
8BB`\L) 8D 8F# 8B	8f#`\L 8b 8dd	.	2.r	.
8BB`\J 8D 8F# 8B	8f#`\J 8b 8dd	.	.	.
4r	16r	.	.	.
.	16ff#'\LL	.	.	.
.	16ee'\	.	.	.
.	16dd'\JJ	.	.	.
4FF#\ 4F#	(16cc#\LL	.	.	.
.	16ee\)	.	.	.
.	16dd'\	.	.	.
.	16cc#'\JJ	.	.	.
=21	=21	=21	=21	=21
*	*^	*	*	*
*	*	*	*^	*	*
!	!	!	!	!LO:DY:b=2	!	!
(8BB\L 8D	8b/L	4ryy	p	p	2.r	.
8F#\	16d'/L 16f# 16b	.	.	.	.	.
.	16d'/JJ 16f# 16b	.	.	.	.	.
8BB\ 8D	8d'/L 8f# 8b	8ryy	.	.	.	.
8F#\	8d'/J 8f# 8b	8ryy	.	.	.	.
!	!	!	!LO:DY:b=2	!LO:HP:a	!	!
8AA#X\ 8E	4f#/ 4cc#	4e\	f >	>	.	.
8F#\J)	.	.	.	.	.	.
*	*	*	*v	*v	*	*
*	*v	*v	*	*	*
=22	=22	=22	=22	=22
*	*	*^	*	*
!	!	!LO:DY:b=2	!	!	!
(8BB\L 8D	8d/L 8b	] p	.	2.r	]
8F#\	16d/L 16f# 16b	.	.	.	.
.	16d/JJ 16f# 16b	.	.	.	.
8BB\ 8D	8d/L 8b	.	.	.	.
8F#\	8d/J 8b	.	.	.	.
!	!	!LO:DY:b=2	!LO:HP:a	!	!
8FF#\ 8C#	4c#/ 4f# 4a#X	f > ]]	> ]]	.	.
8F#\J)	.	.	.	.	.
*	*	*v	*v	*	*
=23	=23	=23	=23	=23
*	*^	*	*	*
*	*	*	*^	*	*
!	!	!	!LO:DY:b=2	!	!	!
(8BB\L 8D	8d/L 8b	2ryy	p	.	2.r	.
8F#\	16d/L 16f# 16b	.	.	.	.	.
.	16d/JJ 16f# 16b	.	.	.	.	.
8BB\ 8D	8d/L 8b	.	.	.	.	.
8F#\J)	8d/J 8b	.	.	.	.	.
!	!	!	!LO:HP:b=2	!	!	!
!	!	!	!LO:DY:b=2	!LO:HP:a	!	!
4En\ 4G	(<16cc#/LL	4gn\	f >	>	.	.
.	32dd/L	.	.	.	.	.
.	32ee/JJJ	.	.	.	.	.
.	16dd'/LL	.	]	]	.	.
.	16cc#'/JJ)	.	.	.	.	.
*	*v	*v	*	*	*	*
=24	=24	=24	=24	=24	=24
4F#\	8d`/L 8b	.	.	2.r	.
.	(16d/L 16b	.	.	.	.
.	16c#/JJ) 16a#X	.	.	.	.
8r	(4c#/ 4e 4a#	.	.	.	.
!LO:TX:B:b:t=Dal Segno	!	!	!	!	!
8FF#/L	.	.	.	.	.
8BB/J	8d/) 8b	.	.	.	.
8r	8r	.	.	.	.
!!LO:PB:g=original	!	!	!	!	!
*	*	*v	*v	*	*
=25:|!	=25:|!	=25:|!	=25:|!	=25:|!
*clefG2	*	*	*	*
*^	*	*	*	*
!	!	!LO:TX:b:t=dolce	!LO:HP:a	!	!
(8d`</L	2.d\	4.aa\	>	2.r	.
8f#'/ 8a	.	.	.	.	.
8f#'/ 8a	.	.	]	.	.
8f#'/ 8a	.	(8ddd\L	.	.	.
8f#'/ 8a	.	8ff#\	.	.	.
8f#'/J) 8a	.	8bb\J)	.	.	.
=26	=26	=26	=26	=26	=26
(8e`</L	2.e\	(8.aa\L	.	2.r	.
8g'/ 8a	.	.	.	.	.
.	.	16gg#X\Jk)	.	.	.
8g'/ 8a	.	2ggn\	.	.	.
8g'/ 8a	.	.	.	.	.
8g'/ 8a	.	.	.	.	.
8g'/J) 8a	.	.	.	.	.
=27	=27	=27	=27	=27	=27
(8c#`</L	2.c#\	8gg\	.	2.r	.
8e'/ 8g 8a	.	(<4gg\	.	.	.
8e'/ 8g 8a	.	.	.	.	.
8e'/ 8g 8a	.	16aa\LL	.	.	.
.	.	16bb\JJ)	.	.	.
8e'/ 8g 8a	.	16aa\LL	.	.	.
.	.	16gg\	.	.	.
8e'/J) 8g 8a	.	16ff#\	.	.	.
.	.	16ee\JJ	.	.	.
=28	=28	=28	=28	=28	=28
8d`</L	[2d\	8.gg\L	.	2.r	.
8f#/ 8a	.	.	.	.	.
.	.	16ff#\Jk	.	.	.
8f#/ 8a	.	4.ff#\	.	.	.
8f#/J 8a	.	.	.	.	.
8f#/ 8a	4d\]	.	.	.	.
8rf	.	8r	.	.	.
*clefF4	*	*	*	*	*
=29	=29	=29	=29	=29	=29
!LO:TX:t=P:problem: brak zmiany klucza w źródle	!	!	!	!LO:TX:a:t=a mezza voce.	!
2.A/	4A\	(8.d/L 8.f#	p	8.f#/	.
.	.	16c#/K) 16e	.	16e/	.
.	4G\	8c#'/ 8e	.	8e/	.
.	.	8c#'/ 8e	.	8e/	.
.	4F#\	8.c#'/ 8.e	.	8.e/	.
.	.	16d#X'/Jk 16f#	.	16f#/	.
=30	=30	=30	=30	=30	=30
2.A/	4E\	(8.d#X/L 8.f# 8.a	.	8.a/L	.
.	.	16e/Jk) 16g	.	16g/Jk	.
.	4C#\	4.e/ 4.g	>	(4.g/	.
.	4AA/	.	]	.	.
.	.	8e/ 8g 8cc#	.	8cc#/)	.
=31	=31	=31	=31	=31	=31
*	*	*^	*	*	*
4D/	2.DD\	8.dd/L	8.f#\L	fp	8.dd\	.
.	.	16cc#/K	16a\Jk	.	16cc#\	.
4D/	.	8b/	8g\L	.	8b/	.
.	.	8a/	8f#\	.	8a/	.
4D/	.	8g/	8e\	.	8.g/	.
.	.	8f#/J	8dn\J	.	.	.
.	.	.	.	.	16f#/	.
*v	*v	*	*	*	*	*
*	*v	*v	*	*	*
=32	=32	=32	=32	=32
(4AA/	(4d/ 4f#	.	(4f#/	.
!	!LO:TX:a:t=trombe	!	!	!
8AAA/)	8c#/L) 8e	.	8e/)	.
8r	16A'/L	.	8r	.
.	16A'/JJ	.	.	.
4r	8A'/L	.	4r	.
.	8A'/J	.	.	.
!!LO:LB:g=original	!	!	!	!
=33:|!|:	=33:|!|:	=33:|!|:	=33:|!|:	=33:|!|:
*^	*	*	*	*
4BB/	2.BBB\	(8.f#/L 8.a	.	8.a/	.
.	.	16e/K 16g	.	16g/	.
4BB/	.	8d#X/J) 8f#	.	8f#/	.
.	.	8d#/L 8f#	.	8f#/	.
4BB/	.	8.g/ 8.b	>	8.b/	.
.	.	16f#/Jk 16a	]	16a/	.
*v	*v	*	*	*	*
=34	=34	=34	=34	=34
!	!	!LO:HP:a	!	!
4E\	(4f#/ 4a	>	4a/	.
8EE/	8e/L) 8g	]	8g/	.
!	!LO:TX:a:t=trombe	!	!	!
8r	16e'/L	.	8r	.
.	16e'/JJ	.	.	.
4r	8e'/L	.	4r	.
.	8e'/J	.	.	.
=35	=35	=35	=35	=35
*^	*	*	*	*
!	!	!	!LO:HP:a	!	!
!	!	!	!LO:DY:b	!	!
4AA/	2.AAA\	(8.e/L 8.g	fp > ]]	8.g/	.
.	.	16dn/K) 16f#	.	16f#/	.
4AA/	.	8c#/J 8e	.	8e/	.
.	.	8c#/L 8e	.	8e/	.
!	!	!	!LO:DY:a	!	!
4AA/	.	(8.f#/ 8.a	>	8.a/	.
.	.	16e/Jk) 16g	]	16g/	.
*v	*v	*	*	*	*
=36	=36	=36	=36	=36
4D\	(4e/ 4g	.	4g/	.
8DD/	8d/L) 8f#	.	8f#/	.
!	!LO:TX:a:t=trombe	!	!	!
8r	16A'/L	.	8r	.
.	16A'/JJ	.	.	.
4r	8A'/L	.	4r	.
.	8A'/J	.	.	.
=37	=37	=37	=37	=37
*	*^	*	*	*
16G\LL	4.cc#/ 4.ee	4.a\	f	4.ee\	.
16A\	.	.	.	.	.
16G\	.	.	.	.	.
16A\JJ	.	.	.	.	.
16G\LL	.	.	.	.	.
16A\	.	.	.	.	.
16G\	(16cc#/LL	8ryy	.	16cc#/LL	.
16A\JJ	16a/JJ)	.	.	16a/JJ	.
!	!	!	!	!LO:N:vis=16	!
16F#\LL	(16a\LL 16dd	4ryy	.	16.dd\LL	.
16A\	16dd\) 16ff#	.	.	.	.
!	!	!	!	!LO:N:vis=8.	!
.	.	.	.	32ff#\JJk	.
!	!	!	!	!LO:N:vis=16	!
16F#\	(16dd\ 16ff#	.	.	16.ff#\LL	.
16A\JJ	16ff#\JJ) 16aa	.	.	.	.
!	!	!	!	!LO:N:vis=8.	!
.	.	.	.	32aa\JJk	.
*	*v	*v	*	*	*
=38	=38	=38	=38	=38
16C#\LL	8a`\L 8ff# 8aa	.	4aa\	.
16A\	.	.	.	.
16C#\	(16ff#\L 16aa	.	.	.
16A\JJ	16gg\JJ) 16bb	.	.	.
16C#\LL	8a`\L 8ee 8gg	.	4gg\	.
16A\	.	.	.	.
16C#\	(16ee\L 16gg	.	.	.
16A\JJ	16ff#\JJ) 16aa	.	.	.
16D\LL	4dd\ 4ff#	.	8ff#\	.
16A\	.	.	.	.
16D\	.	.	8r	.
16A\JJ	.	.	.	.
=39	=39	=39	=39	=39
16G\LL	8a`\ 8cc# 8ee	.	4.ee\	.
16A\	.	.	.	.
16G\	4a`\ 4cc# 4ee	.	.	.
16A\JJ	.	.	.	.
16G\LL	.	.	.	.
16A\	.	.	.	.
16G\	(16cc#/LL	.	8ee\	.
16A\JJ	16a/JJ)	.	.	.
16F#\LL	(16a\LL 16dd	.	8.ff#\	.
16A\	16dd\) 16ff#	.	.	.
16D\	(16dd\ 16ff#	.	.	.
16A\JJ	16ff#\JJ) 16aa	.	16aa\	.
=40	=40	=40	=40	=40
4AA/	(16ff#\LL 16aa	.	(16aa\LL	.
.	16ee\ 16gg	.	16gg\	.
.	16dd\) 16ff#	.	16ff#\JJ)	.
.	16cc#`\JJ 16ee	.	16ee\	.
8r	(4cc#\ 4ee	.	(4ee\	.
(8A\L	.	.	.	.
8D\J)	8dd\)	.	8dd\)	.
8r	8r	.	8r	.
=:|!	=:|!	=:|!	=:|!	=:|!
*-	*-	*-	*-	*-
!!!system-decoration: [(s1)]{(s2,s3)}
!!!RDF**kern: > = above
!!!RDF**kern: < = below
!!!ENC: Berenika Jozajtis
!!!END: 2022-08-17
!!!ENC: Natalia Wrzos
!!!END: 2022-09-17
!!!YEC: Copyright 2022 Narodowy Instytut Fryderyka Chopina (https://polishscores.org)
!!!YEM: License CC-BY-4.0 (https://creativecommons.org/licenses/by/4.0)
